images/icons/Iconlock.svg

<svg width="26" height="20" viewBox="0 0 26 20" fill="none" xmlns="http://www.w3.org/2000/svg">
<path fill-rule="evenodd" clip-rule="evenodd" d="M20.125 7.0625C18.5344 7.0625 17.1606 8.17506 16.83 9.73088L16.8022 9.86139C16.7173 10.261 16.7024 10.6724 16.758 11.0771L16.9493 12.468C16.8778 12.4766 16.8064 12.4856 16.735 12.4949C15.6354 12.6377 14.8125 13.5744 14.8125 14.6832V17.5668C14.8125 18.6757 15.6354 19.6123 16.735 19.7551C18.9855 20.0474 21.2644 20.0474 23.515 19.7551C24.6146 19.6123 25.4375 18.6757 25.4375 17.5668V14.6832C25.4375 13.5744 24.6146 12.6377 23.515 12.4949C23.4436 12.4856 23.3722 12.4766 23.3007 12.468L23.4919 11.0771C23.5476 10.6724 23.5326 10.261 23.4477 9.86139L23.42 9.73088C23.0894 8.17506 21.7155 7.0625 20.125 7.0625ZM21.43 12.3081L21.6344 10.8217C21.6605 10.6318 21.6535 10.4387 21.6137 10.2511L21.5859 10.1206C21.4393 9.43079 20.8302 8.9375 20.125 8.9375C19.4197 8.9375 18.8106 9.43079 18.664 10.1206L18.6363 10.2511C18.5964 10.4387 18.5894 10.6318 18.6155 10.8217L18.8199 12.3081C19.6894 12.2649 20.5605 12.2649 21.43 12.3081Z" fill="black"/>
<path d="M22.8646 5.47618C22.8966 5.68614 22.6637 5.83784 22.4738 5.74263C21.7628 5.38602 20.9632 5.1875 20.125 5.1875C17.6491 5.1875 15.5106 6.91932 14.9959 9.34115L14.9682 9.47165C14.8693 9.93716 14.8324 10.413 14.8579 10.887C14.8684 11.0807 14.7771 11.2664 14.6202 11.3805C13.5937 12.1271 12.9375 13.3365 12.9375 14.6832V16.4567C12.9375 16.6622 12.772 16.8296 12.5664 16.8309C10.2297 16.8455 7.89257 16.7694 5.56031 16.6026L3.6678 16.4672C2.45716 16.3806 1.45861 15.4856 1.24045 14.2916C0.705887 11.3659 0.61437 8.37641 0.968973 5.42346L1.30958 2.58707C1.474 1.2179 2.63553 0.1875 4.01453 0.1875H6.87899C8.1194 0.1875 9.12495 1.19305 9.12495 2.43346C9.12495 2.47443 9.15816 2.50765 9.19914 2.50765L20.0902 2.50765C21.416 2.50765 22.5453 3.47099 22.7543 4.78021L22.8343 5.282C22.8447 5.3467 22.8548 5.41143 22.8646 5.47618Z" fill="black"/>
</svg>

<svg width="26" height="20" fill="none" xmlns="http://www.w3.org/2000/svg"><path fill-rule="evenodd" clip-rule="evenodd" d="M20.125 7.063A3.369 3.369 0 0 0 16.83 9.73l-.028.13c-.085.4-.1.811-.044 1.216l.191 1.391-.214.027a2.207 2.207 0 0 0-1.922 2.188v2.884c0 1.109.822 2.045 1.922 2.188 2.25.292 4.53.292 6.78 0a2.207 2.207 0 0 0 1.922-2.188v-2.884a2.207 2.207 0 0 0-1.922-2.188c-.071-.01-.143-.018-.214-.027l.19-1.39c.057-.406.042-.817-.043-1.217l-.028-.13a3.369 3.369 0 0 0-3.295-2.668Zm1.305 5.245.204-1.486a1.66 1.66 0 0 0-.02-.57l-.028-.131a1.494 1.494 0 0 0-2.922 0l-.028.13c-.04.188-.047.38-.02.57l.204 1.487a26.3 26.3 0 0 1 2.61 0Z" fill="#000"/><path d="M22.865 5.476c.032.21-.201.362-.391.267a5.244 5.244 0 0 0-7.478 3.599l-.028.13a5.411 5.411 0 0 0-.11 1.415c.01.194-.08.38-.238.493a4.08 4.08 0 0 0-1.682 3.303v1.774a.374.374 0 0 1-.372.374 90.303 90.303 0 0 1-7.006-.228l-1.892-.136a2.66 2.66 0 0 1-2.428-2.175A29.663 29.663 0 0 1 .97 5.423l.34-2.836a2.724 2.724 0 0 1 2.706-2.4h2.864a2.246 2.246 0 0 1 2.246 2.246c0 .041.033.075.074.075H20.09c1.326 0 2.455.963 2.664 2.272l.08.502.03.194Z" fill="#000"/></svg>
